X:17
T:I'll Gang Nae Mair to Yon Toun
R:reel
O:Scottish
D:John Campbell, Cape Breton Violin Music (1975-2006)
N:also played in F major (see Skye Collection)
H:recorded in G by The Inverness Seranaders on 78 disc
Z:Paul Stewart Cranford (P.S.C.), <http://www.cranfordpub.com>
L:1/8
M:C|
Q:333
K:G
D|GBgd B2GA|BedB cAAb|afgd B2 GA|BdAc BGG:|
||c|BGdG eGdc|BGdB cAAc|BGdG eGdc|BdAc BGGc|
BGdG eGdc|BGdB cAAb|afgd B2 GA|BdAc BGG|]
